images/d-nose-hover.svg

<svg fill="none" height="232" viewBox="0 0 176 232" width="176" xmlns="http://www.w3.org/2000/svg" xmlns:xlink="http://www.w3.org/1999/xlink"><clipPath id="a"><path d="m0 0h175.023v231.592h-175.023z"/></clipPath><g clip-path="url(#a)"><path clip-rule="evenodd" d="m121.707-.00011551 40.375 150.68411551-9.659 2.589 6.212 23.182-9.659 2.588 3.105 11.591-9.659 2.588 2.33 8.694-14.489 3.882 1.294 4.829-37.6714 10.094-1.2941-4.829-13.523 3.623-3.1058-11.591-18.3526 4.918-4.1411-15.455-8.6933 2.329-5.9528-22.216 34.7733-9.318 3.8823 14.489 5.7955-1.553 2.0706 7.728 37.6714-10.094-2.847-10.625 4.829-1.294-1.553-5.796-1.553-5.795-38.8224-144.8894z" fill="#ff512f" fill-rule="evenodd"/></g></svg>

<svg width="176" height="232" viewBox="0 0 176 232" fill="none" xmlns="http://www.w3.org/2000/svg">
<g clip-path="url(#clip0_777_7385)">
<path fill-rule="evenodd" clip-rule="evenodd" d="M121.707 -0.000115514L162.082 150.684L152.423 153.273L158.635 176.455L148.976 179.043L152.081 190.634L142.422 193.222L144.752 201.916L130.263 205.798L131.557 210.627L93.8856 220.721L92.5915 215.892L79.0685 219.515L75.9627 207.924L57.6101 212.842L53.469 197.387L44.7757 199.716L38.8229 177.5L73.5962 168.182L77.4785 182.671L83.274 181.118L85.3446 188.846L123.016 178.752L120.169 168.127L124.998 166.833L123.445 161.037L121.892 155.242L83.0696 10.3526L121.707 -0.000115514Z" fill="#FF512F"/>
</g>
<defs>
<clipPath id="clip0_777_7385">
<rect width="175.023" height="231.592" fill="white"/>
</clipPath>
</defs>
</svg>
